client/public/img/game/shared/obstacles/oak_tree_trunk_1.svg

<?xml version="1.0" encoding="UTF-8" standalone="no"?>
<svg
   width="438.49771"
   height="420.38126"
   fill="none"
   version="1.1"
   id="svg20"
   xmlns="http://www.w3.org/2000/svg"
   xmlns:svg="http://www.w3.org/2000/svg">
  <defs
     id="defs20" />
  <path
     d="M 373.66437,261.30036 272.31321,177.46374 c 0,0 -14.37233,-25.92498 -24.21468,-42.16085 C 228.22905,102.52507 193.275,53.893335 193.275,53.893335 L 125.73575,44.040106 177.88,70.875959 205.70285,160.72086 127.15784,177.42019 91.42208,95.841668 19.054864,70.637426 68.54216,111.24944 c 0,0 13.217983,42.04637 21.204685,61.7816 8.493416,20.98646 18.332045,33.94188 18.332045,33.94188 L 76.122581,221.53141 4.4979691,194.24487 77.458193,253.14868 197.90027,204.95129 l 37.66268,92.61904 57.28819,26.15352 -34.24879,-39.40786 -12.70604,-71.66065 99.42866,61.41316 19.19545,57.06746 z"
     fill="#5b3e24"
     style="opacity:1;stroke:#372516;stroke-width:9;stroke-linecap:round;stroke-linejoin:round;stroke-dasharray:none;stroke-opacity:1"
     id="path1" />
  <path
     d="m 272.71042,177.56368 38.17234,13.27347 70.7453,-6.57484 52.37097,53.47962 -68.8973,-26.34065 -62.19509,20.30584 -57.09093,-18.62838 -33.80678,81.58308 18.13604,60.52252 -36.38617,60.6983 4.73233,-66.87582 -28.55547,-62.55594 26.85027,-80.0288 c -36.86039,6.66092 -91.33789,3.38641 -91.33789,3.38641 L 56.516502,172.80679 9.5009489,151.56896 72.976154,148.15 123.29517,173.77684 c 0,0 51.68073,-1.5495 82.32747,-12.63454 l -7.34896,-47.60308 c 3.41568,-25.573266 20.40178,-58.759142 20.40178,-58.759142 l -11.10651,-50.2814072 36.899,45.9017292 -9.88966,50.67499 13.91826,34.3286 35.86515,-17.54202 42.22294,-7.48196 L 368.745,71.539432 336.81956,133.2968 c 0,0 -53.25559,20.98472 -64.10914,44.26688 z"
     fill="#6d4a2c"
     stroke="#1b1917"
     stroke-width="12.319"
     stroke-miterlimit="16"
     stroke-linejoin="round"
     style="stroke:#372516;stroke-width:9;stroke-miterlimit:16;stroke-dasharray:none;stroke-opacity:1"
     id="path2" />
</svg>

<svg xmlns="http://www.w3.org/2000/svg" width="438.498" height="420.381" fill="none"><path fill="#5b3e24" d="m373.664 261.3-101.35-83.836s-14.373-25.925-24.215-42.161c-19.87-32.778-54.824-81.41-54.824-81.41l-67.54-9.853 52.145 26.836 27.823 89.845-78.545 16.7-35.736-81.58-72.367-25.204 49.487 40.612s13.218 42.047 21.205 61.782c8.493 20.987 18.332 33.942 18.332 33.942L76.123 221.53 4.498 194.245l72.96 58.904L197.9 204.95l37.663 92.62 57.288 26.153-34.249-39.408-12.706-71.66 99.429 61.413 19.195 57.067z" style="opacity:1;stroke:#372516;stroke-width:9;stroke-linecap:round;stroke-linejoin:round;stroke-dasharray:none;stroke-opacity:1"/><path fill="#6d4a2c" stroke="#1b1917" stroke-linejoin="round" stroke-miterlimit="16" stroke-width="12.319" d="m272.71 177.564 38.173 13.273 70.745-6.575L434 237.742l-68.897-26.34-62.195 20.305-57.091-18.628-33.807 81.583 18.136 60.522-36.386 60.699 4.732-66.876-28.555-62.556 26.85-80.029c-36.86 6.661-91.338 3.386-91.338 3.386l-48.931-37.001L9.5 151.569l63.475-3.419 50.32 25.627s51.68-1.55 82.327-12.635l-7.35-47.603c3.416-25.573 20.402-58.759 20.402-58.759L207.57 4.5 244.468 50.4l-9.89 50.675 13.919 34.329 35.865-17.542 42.223-7.482 42.16-38.84-31.925 61.757s-53.256 20.985-64.11 44.267z" style="stroke:#372516;stroke-width:9;stroke-miterlimit:16;stroke-dasharray:none;stroke-opacity:1"/></svg>
